X:9006
T:Iron Legs Hornpipe
T:Iron League Hornpipe
R:Hornpipe
C:Trad.
O:England
Z:Paul Hardy's Session Tunebook 2015 (see www.paulhardy.net). Creative Commons cc by-nc-sa licenced.
M:4/4
L:1/8
Q:1/4=140
K:D
AG|"D"F2 AG "A"E2 AG|"D"FG"A"EF "D"D2 A2|"G"B2 c2 "Bm"d2 ed|"A"cdBc A2 AG|
"D"F2 AG "A"E2 AG|"D"FG"A"EF "D"D2 A2|"G"Bcde "A"fedc|"D"d4 d2:|
|:ag|"D"fgfg "A"efef|"D"fgfg "A"efef|"Bm"dede "A"cdcd|"Bm"dede "F#m"cdcd|
"G"BcBc "D"ABAB|"G"BcBc "D"ABAB|"G"Bcde "A"fedc|"D"d4 d2:|

